X:1
T:Expectatio iustorum
T:Orlando di Lasso
T:Source : Bicinia---Antwerp---Pierre Phalèse Jr---1609. Editor : André Vierendeels (09/06/17).
T:Notes : Original clefs : G2, C2 Original note values have been halved Editorial accidentals above the staff
T:Expectatio iustorum
T:©
T:©
T:©
C:Orlando di Lasso
Z:©
%%score [ 1 2 ]
L:1/8
Q:1/4=120
M:2/2
K:F
V:1 treble nm="Soprano" snm="S"
V:2 treble nm="Alto" snm="A"
V:1
 z8 | z4 d4- | d2 d2 d2 d2 | f2 d2 f3 e | dc d2 A4 | z2 F2 FEFG | ABcd edef | g2 g2 c4 | %8
w: |Ex-|* pec- ta- ti-|o iu- sto- *|* * * rum-|lae- ti- * * *||* ti- a,|
 z2 A2 cdec | dcde fc d2- | d2 A2 z2 B2 | A2 Bc de f2 | d4 f3 e | fd f2 ed d2- | %14
w: spes au- * * *||* tem im-|pi- o- * * * *|rum pe- *|* * * ri- * *|
"^#""^-natural""^#" dc/B/ c2 d4 | z2 f4 f2 | f4 e4 | z2 g3 f f2- | fe e4 d2 | e4 g4 | d4 f3 e | %21
w: * * * * bit,|for- ti-|tu- do|sim- * *|* * * pli-|cis vi-|as Do- *|
 d2 c2 B4 | z2 A2 cdec | f4 c4 | d2 G2 A2 c2 | B3 A/B/ c2 B2 | z2 c2 B2 A2 | d4 c2 B2- | %28
w: * mi- ni,|et pa- * * *|* vor|his qui o- pe-|ran- * * * tur,|qui o- pe-|ran- tur ma-|
 BABc de f2- | fe e3 d d2- | dc c3 B B2- | BA A3 G/F/ G2 | A8 |] %33
w: ||||lum.|
V:2
 A6 A2 | A2 A2 B2 G2 | B3 A GF G2 | D4 z2 B,2 | B,A,B,C DEFG | AGAB c2 c2 | F4 z2 C2 | EFGE FEFG | %8
w: Ex- pec-|ta- ti- o iu-|sto- * * * *|rum lae|ti- * * * * * * *|* * * * * ti-|a, spes|au- * * * * * * *|
 AE F4 C2 | z2 B,2 A,2 B,C | DE F2 D4- | D4 B3 A | BG B3 AFG | AB A3 F G2 | E4 D4- | D4 z2 A2- | %16
w: * * * tem|im- pi- o- *|* * * rum|_ pe- *|||ri- bit,|_ for-|
 A2 A2 A4 | G4 B3 A | A3 G F2 F2 | E2 C3 DEF | GABG A2 B2- | B2 A4 G2 | A8 | z2 D2 FGAF | B4 F4 | %25
w: * ti- tu-|do sim- *|* * * pli-|cis vi- * * *|* * * * * as|_ Do- li-|ni|et pa- * * *|* vor|
 G2 D2 E2 G2 | F3 E/F/ G2 F2 | z2 F2 E2 D2 | G4 F4 | G3 A F3 G | E3 F D3 _E | C3 D B,4 | A,8 |] %33
w: his qui o- pe-|ran- * * * tur,|qui o- pe-|ran- tur|ma- * * *|||lum.|

